src/svtools/res/ed07.svg

<?xml version="1.0" encoding="UTF-8" standalone="no"?>
<svg
   xmlns:dc="http://purl.org/dc/elements/1.1/"
   xmlns:cc="http://creativecommons.org/ns#"
   xmlns:rdf="http://www.w3.org/1999/02/22-rdf-syntax-ns#"
   xmlns:svg="http://www.w3.org/2000/svg"
   xmlns="http://www.w3.org/2000/svg"
   xmlns:sodipodi="http://sodipodi.sourceforge.net/DTD/sodipodi-0.dtd"
   xmlns:inkscape="http://www.inkscape.org/namespaces/inkscape"
   viewBox="0 0 11 11"
   version="1.1"
   id="svg6"
   sodipodi:docname="ed07.svg"
   inkscape:export-filename="/home/jupiter007/Libreoffice yaru theme fullcolor/build/svtools/res/ed07.png"
   inkscape:export-xdpi="95"
   inkscape:export-ydpi="95"
   inkscape:version="0.92.5 (2060ec1f9f, 2020-04-08)">
  <metadata
     id="metadata12">
    <rdf:RDF>
      <cc:Work
         rdf:about="">
        <dc:format>image/svg+xml</dc:format>
        <dc:type
           rdf:resource="http://purl.org/dc/dcmitype/StillImage" />
      </cc:Work>
    </rdf:RDF>
  </metadata>
  <defs
     id="defs10" />
  <sodipodi:namedview
     pagecolor="#ffffff"
     bordercolor="#666666"
     borderopacity="1"
     objecttolerance="10"
     gridtolerance="10"
     guidetolerance="10"
     inkscape:pageopacity="0"
     inkscape:pageshadow="2"
     inkscape:window-width="1920"
     inkscape:window-height="1011"
     id="namedview8"
     showgrid="true"
     inkscape:zoom="21.454545"
     inkscape:cx="5.5"
     inkscape:cy="5.5"
     inkscape:window-x="0"
     inkscape:window-y="32"
     inkscape:window-maximized="1"
     inkscape:current-layer="svg6">
    <inkscape:grid
       type="xygrid"
       id="grid838" />
  </sodipodi:namedview>
  <path
     sodipodi:nodetypes="cccc"
     style="opacity:0.6;fill:#000000;stroke:#000000;stroke-width:2;stroke-linejoin:round;stroke-miterlimit:4;stroke-dasharray:none"
     inkscape:connector-curvature="0"
     id="path826"
     d="m 1,1 v 9 L 7,5.5 Z" />
  <path
     d="m 1,1 v 9 L 7,5.5 Z"
     id="path4-3"
     inkscape:connector-curvature="0"
     style="fill:#ffffff"
     sodipodi:nodetypes="cccc" />
  <path
     sodipodi:nodetypes="ccssscccccccccccccccccc"
     style="opacity:0.6;fill:#000000;stroke:#000000;stroke-width:2;stroke-linejoin:round;stroke-miterlimit:4;stroke-dasharray:none"
     inkscape:connector-curvature="0"
     id="path819"
     d="m 4.999999,4 h 2 v 5.5 c 0,0.276142 0.223858,0.5 0.5,0.5 0.276143,0 0.5,-0.223858 0.5,-0.5 V 9 H 9 V 8 H 7.999999 V 7 H 9 V 5.9999995 H 7.999999 V 4 H 10 V 1 H 4.999999 Z m 1,-1 V 2 H 9 v 1 z" />
  <path
     d="m 4.999999,4 h 2 v 5.5 c 0,0.276142 0.223858,0.5 0.5,0.5 0.276143,0 0.5,-0.223858 0.5,-0.5 V 9 H 9 V 8 H 7.999999 V 7 H 9 V 5.9999995 H 7.999999 V 4 H 10 V 1 H 4.999999 Z m 1,-1 V 2 H 9 v 1 z"
     id="path2"
     inkscape:connector-curvature="0"
     style="fill:#aee3f8;fill-opacity:1"
     sodipodi:nodetypes="ccssscccccccccccccccccc" />
</svg>

<svg viewBox="0 0 11 11" xmlns="http://www.w3.org/2000/svg"><path d="m1 1v9l5-4.5z" fill="#762572"/><path d="m5 1v3h2v1 4.5c0 .2761.223858.5.5.5s.5-.2239.5-.5v-.5h1v-1h-1v-.5-.5h1v-1h-1v-1-1h2v-3zm1 1h3v1h-3z" fill="#232629"/></svg>
